brandFactory_export/3.Masa/Turismo maleta _3Masa.svg

<?xml version="1.0" encoding="UTF-8"?>
<svg width="24px" height="24px" viewBox="0 0 24 24" version="1.1" xmlns="http://www.w3.org/2000/svg" xmlns:xlink="http://www.w3.org/1999/xlink">
    <title>3.Masa/Turismo maleta _3Masa</title>
    <g id="Symbols" stroke="none" stroke-width="1" fill="none" fill-rule="evenodd">
        <g id="3.Masa/Turismo-maleta-_3Masa" fill="#5CB615" fill-rule="nonzero">
            <path d="M15.8168067,11.3243697 L7.99159664,11.3243697 L7.99159664,9.27731092 C7.99159664,8.55798319 8.40840336,7.81176471 9.10084034,7.81176471 L14.7109244,7.81176471 C15.4033613,7.81176471 15.8201681,8.55798319 15.8201681,9.27731092 C15.8168067,9.27731092 15.8168067,11.3243697 15.8168067,11.3243697 L15.8168067,11.3243697 Z M15.8168067,18.5378151 C15.8168067,19.3747899 15.3394958,20.0033613 14.7109244,20.0033613 L9.10084034,20.0033613 C8.46890756,20.0033613 7.99159664,19.3747899 7.99159664,18.5378151 L7.99159664,12.6252101 L15.8201681,12.6252101 L15.8201681,18.5378151 L15.8168067,18.5378151 Z M9.59495798,4.77983193 L14.2134454,4.77983193 L14.2134454,1.46218487 L9.59495798,1.46218487 L9.59495798,4.77983193 Z M17.3394958,4.78991597 L15.6890756,4.78991597 L15.6890756,1.05882353 C15.6890756,0.494117647 15.1781513,0 14.5966387,0 L9.20840336,0 C8.61344538,0 8.11596639,0.484033613 8.11596639,1.05882353 L8.11596639,4.78991597 L6.46554622,4.78991597 C5.69243697,4.78991597 5.01008403,5.54621849 5.01008403,6.41008403 L5.01008403,21.2773109 C5.01008403,22.1579832 5.67563025,22.9008403 6.46554622,22.9008403 L7.76302521,22.9008403 C7.8605042,23.5596639 8.42521008,23.6235294 8.58655462,23.6235294 L8.66722689,23.6235294 C8.82184874,23.6201681 9.39327731,23.5596639 9.4907563,22.9008403 L14.3579832,22.9008403 C14.4554622,23.5596639 15.0201681,23.6201681 15.1815126,23.6235294 L15.2621849,23.6235294 C15.4168067,23.6201681 15.9882353,23.5596639 16.0857143,22.9008403 L17.3394958,22.9008403 C18.1294118,22.9008403 18.794958,22.1579832 18.794958,21.2773109 L18.794958,6.41008403 C18.794958,5.54621849 18.1159664,4.78991597 17.3394958,4.78991597 Z" id="Turismo-maleta-_3Masa"></path>
        </g>
    </g>
</svg>

<svg width="24" height="24" viewBox="0 0 24 24" xmlns="http://www.w3.org/2000/svg"><path d="M15.817 11.324H7.992V9.277c0-.719.416-1.465 1.109-1.465h5.61c.692 0 1.11.746 1.11 1.465-.004 0-.004 2.047-.004 2.047zm0 7.214c0 .837-.478 1.465-1.106 1.465H9.1c-.632 0-1.11-.628-1.11-1.465v-5.913h7.83v5.913h-.004zM9.595 4.78h4.618V1.462H9.595V4.78zm7.744.01h-1.65V1.059C15.69.494 15.18 0 14.597 0H9.208c-.595 0-1.092.484-1.092 1.059v3.73h-1.65c-.774 0-1.456.757-1.456 1.621v14.867c0 .881.666 1.624 1.456 1.624h1.297c.098.659.662.723.824.723h.08c.155-.004.726-.064.824-.723h4.867c.097.659.662.72.824.723h.08c.155-.004.726-.064.824-.723h1.253c.79 0 1.456-.743 1.456-1.624V6.41c0-.864-.679-1.62-1.456-1.62z" fill="#5CB615" fill-rule="nonzero"/></svg>
